X: 74
T: THE BOG BLOSSOM
B: O'Neill's 74
M: C
L: 1/8
Z: Transcribed by John Chambers <jc@trillian.mit.edu>
N: "Gaily"
N: "Collected by F.ONeill"
K:G
(d/c/) \
| BGGB c2Ac | BGAG FD2(d/c/) | BGGB c2Ac | BGAB c3 (d/c/) |
| BGGB c2Ac | BGAG FD2(B/c/) | dBcA BGHc>c | BGAF G3 || G |
| GBAG FDDE | FGAB c2AF | GBAG FEFG | ABcA d3(c/A/) |
| GBAG FDDE | FGAB c3(B/c/) | dBcA BGHc>c | BGAF G3 ||


